X: 68
M:4/4
L:1/8
K:A
E|A2 (3cBA BEEB|A2 (3cBA ceac|A2 (3cBA BEEe|afec A2 E2|
(3efg|a2 eg fece|a2 ga bgeg|a2 eg fece|afec A2 (3efg|
agfe fedc|dcBA GABd|ceAa gbeg|agbg agec|| 

